img/svg/arbeidsgiver--hover.svg

<svg width="30" height="30" xmlns="http://www.w3.org/2000/svg"><g fill-rule="nonzero" fill="#0067C5"><path d="M26.25 21l-6.75-1.875c1.125-1.125 2.125-2.5 2.25-4.25.875-.25 1.375-1.25 1.375-2.375 0-.375 0-.75-.125-1l.75-4.625c0-.125.25-2.5-1.5-4.375C20.75.875 18.375 0 15 0c-3.25 0-5.75.875-7.25 2.5C6 4.5 6.25 6.875 6.25 7l.625 4.5c-.125.25-.125.625-.125 1 0 1.25.625 2.125 1.375 2.375.125 1.75 1.125 3.125 2.375 4.25L3.625 21C1.5 21.75 0 23.875 0 26.25V30h10.75L14 24.125c-.875-.375-1.5-1.25-1.5-2.25V20.5c1 .5 1.875.75 2.5.75s1.5-.25 2.5-.75v1.375c0 1-.625 1.875-1.5 2.25L19.25 30H30v-3.75c0-2.375-1.5-4.5-3.75-5.25zM15 20c-1.625 0-5.625-2.375-5.625-5.625 0-.375-.25-.625-.625-.625-.625 0-.75-.875-.75-1.25s.125-1.25.75-1.25c.25 0 .5-.25.625-.5l.5-2.625c3.25-.125 4.5-1 5.125-2 .625 1 1.875 1.875 5.125 2l.5 2.625c.125.25.375.5.625.5.625 0 .75.875.75 1.25s-.125 1.25-.75 1.25c-.375 0-.625.25-.625.625 0 3.25-4 5.625-5.625 5.625zm11.25 6.25h-4.375V25h4.375v1.25z"/><path d="M12.625 10.625h-.25c-.5 0-1 0-1.375.375-.25.25-.375.5-.375.875s.25.625.625.625.625-.25.625-.625h1.25c0 .375.25.625.625.625s.625-.25.625-.625S14.25 11.25 14 11c-.375-.375-.875-.375-1.375-.375zM17.625 10.625h-.25c-.5 0-1 0-1.375.375-.25.25-.375.5-.375.875s.25.625.625.625.625-.25.625-.625h1.25c0 .375.25.625.625.625s.625-.25.625-.625S19.25 11.25 19 11c-.375-.375-.875-.375-1.375-.375z"/></g></svg>

<?xml version="1.0" encoding="UTF-8" standalone="no"?>
<svg width="30px" height="30px" viewBox="0 0 30 30" version="1.1" xmlns="http://www.w3.org/2000/svg" xmlns:xlink="http://www.w3.org/1999/xlink">
<!-- Generator: Sketch 42 (36781) - http://www.bohemiancoding.com/sketch -->
<title>business man 4</title>
<desc>Created with Sketch.</desc>
<defs></defs>
<g id="Page-1" stroke="none" stroke-width="1" fill="none" fill-rule="evenodd">
    <g id="Digisyfo_styleguide" transform="translate(-362.000000, -2107.000000)" fill-rule="nonzero" fill="#0067C5">
        <g id="business-man-4" transform="translate(362.000000, 2107.000000)">
            <g id="Filled_Version">
                <g id="Group">
                    <path d="M26.25,21 L19.5,19.125 C20.625,18 21.625,16.625 21.75,14.875 C22.625,14.625 23.125,13.625 23.125,12.5 C23.125,12.125 23.125,11.75 23,11.5 L23.75,6.875 C23.75,6.75 24,4.375 22.25,2.5 C20.75,0.875 18.375,0 15,0 C11.75,0 9.25,0.875 7.75,2.5 C6,4.5 6.25,6.875 6.25,7 L6.875,11.5 C6.75,11.75 6.75,12.125 6.75,12.5 C6.75,13.75 7.375,14.625 8.125,14.875 C8.25,16.625 9.25,18 10.5,19.125 L3.625,21 C1.5,21.75 0,23.875 0,26.25 L0,30 L10.75,30 L14,24.125 C13.125,23.75 12.5,22.875 12.5,21.875 L12.5,20.5 C13.5,21 14.375,21.25 15,21.25 C15.625,21.25 16.5,21 17.5,20.5 L17.5,21.875 C17.5,22.875 16.875,23.75 16,24.125 L19.25,30 L30,30 L30,26.25 C30,23.875 28.5,21.75 26.25,21 Z M15,20 C13.375,20 9.375,17.625 9.375,14.375 C9.375,14 9.125,13.75 8.75,13.75 C8.125,13.75 8,12.875 8,12.5 C8,12.125 8.125,11.25 8.75,11.25 C9,11.25 9.25,11 9.375,10.75 L9.875,8.125 C13.125,8 14.375,7.125 15,6.125 C15.625,7.125 16.875,8 20.125,8.125 L20.625,10.75 C20.75,11 21,11.25 21.25,11.25 C21.875,11.25 22,12.125 22,12.5 C22,12.875 21.875,13.75 21.25,13.75 C20.875,13.75 20.625,14 20.625,14.375 C20.625,17.625 16.625,20 15,20 Z M26.25,26.25 L21.875,26.25 L21.875,25 L26.25,25 L26.25,26.25 Z" id="Shape"></path>
                    <path d="M12.625,10.625 L12.5,10.625 L12.375,10.625 C11.875,10.625 11.375,10.625 11,11 C10.75,11.25 10.625,11.5 10.625,11.875 C10.625,12.25 10.875,12.5 11.25,12.5 C11.625,12.5 11.875,12.25 11.875,11.875 L12.375,11.875 L12.5,11.875 L12.625,11.875 L13.125,11.875 C13.125,12.25 13.375,12.5 13.75,12.5 C14.125,12.5 14.375,12.25 14.375,11.875 C14.375,11.5 14.25,11.25 14,11 C13.625,10.625 13.125,10.625 12.625,10.625 Z" id="Shape"></path>
                    <path d="M17.625,10.625 L17.5,10.625 L17.375,10.625 C16.875,10.625 16.375,10.625 16,11 C15.75,11.25 15.625,11.5 15.625,11.875 C15.625,12.25 15.875,12.5 16.25,12.5 C16.625,12.5 16.875,12.25 16.875,11.875 L17.375,11.875 L17.5,11.875 L17.625,11.875 L18.125,11.875 C18.125,12.25 18.375,12.5 18.75,12.5 C19.125,12.5 19.375,12.25 19.375,11.875 C19.375,11.5 19.25,11.25 19,11 C18.625,10.625 18.125,10.625 17.625,10.625 Z" id="Shape"></path>
                </g>
            </g>
        </g>
    </g>
</g>
</svg>
